X:195
T:Tim Mulloney's (reel)  
B:CRE1.088 (Tim O Maoldomhnaigh)
F:file ID: cre.1/195tim_m
S:Pat White
N:There are at least three spellings of Tim's last name. The
most common one is "Maloney" but this is the one supplied by 
Paul de Grae in his translation of Breathnach's tune notes.
M:C
L:1/8
Q:180
R:reel
K:G
DGG2 Bdd2|dedB gedB|G2BG dGBG|c2Bc AGEG|
DGG2 Bdd2|dedB d2gf|(3ege ed Bdef|gedB AGEG:|
dgg2 bgg2|dBB2 d2ef|g2bg abge|d2BG AGEG|
dgg2 bgg2|dBB2 d2gf|(3efe ed Bdef|gedB AGEG:|

%%%

